Adwaita/symbolic/mimetypes/application-x-sharedlib-symbolic.svg

<?xml version="1.0" encoding="UTF-8"?>
<svg height="16px" viewBox="0 0 16 16" width="16px" xmlns="http://www.w3.org/2000/svg">
    <g fill="#2e3436">
        <path d="m 13.617188 7.058594 c 0.519531 0.519531 0.519531 1.363281 0 1.882812 l -4.675782 4.675782 c -0.519531 0.519531 -1.363281 0.519531 -1.882812 0 l -4.675782 -4.675782 c -0.519531 -0.519531 -0.519531 -1.363281 0 -1.882812 l 4.675782 -4.675782 c 0.519531 -0.519531 1.363281 -0.519531 1.882812 0 z m -7.96875 -6.082032 l -4.671876 4.671876 c -1.300781 1.304687 -1.300781 3.398437 0 4.703124 l 4.671876 4.671876 c 1.304687 1.300781 3.398437 1.300781 4.703124 0 l 4.671876 -4.671876 c 1.300781 -1.304687 1.300781 -3.398437 0 -4.703124 l -4.671876 -4.671876 c -1.304687 -1.300781 -3.398437 -1.300781 -4.703124 0 z m 0 0"/>
        <path d="m 9.433594 4.558594 c -0.199219 0.007812 -0.386719 0.074218 -0.546875 0.1875 c -0.449219 0.324218 -0.550781 0.953125 -0.222657 1.398437 l 0.140626 0.199219 c 0.273437 0.378906 0.226562 0.953125 -0.050782 1.328125 c -0.011718 0.019531 -0.023437 0.035156 -0.035156 0.050781 c -0.273438 0.382813 -0.808594 0.601563 -1.25 0.457032 l -0.230469 -0.074219 c -0.523437 -0.167969 -1.089843 0.117187 -1.257812 0.640625 c -0.171875 0.527344 0.113281 1.09375 0.640625 1.261718 l 0.222656 0.074219 c 0.445312 0.144531 0.738281 0.640625 0.75 1.105469 v 0.066406 c 0.015625 0.464844 -0.304688 0.960938 -0.75 1.105469 l -0.222656 0.074219 c -0.527344 0.171875 -0.8125 0.734375 -0.640625 1.261718 c 0.167969 0.523438 0.734375 0.8125 1.257812 0.640626 l 0.230469 -0.078126 c 0.445312 -0.144531 0.976562 0.082032 1.25 0.457032 c 0.011719 0.019531 0.023438 0.035156 0.039062 0.050781 c 0.019532 0.03125 0.035157 0.058594 0.054688 0.089844 c 0.300781 -0.113281 0.589844 -0.289063 0.835938 -0.535157 l 0.71875 -0.71875 c -0.246094 -0.332031 -0.441407 -0.707031 -0.574219 -1.109374 c -0.003907 -0.011719 -0.007813 -0.023438 -0.011719 -0.035157 c -0.003906 -0.007812 -0.007812 -0.011719 -0.011719 -0.019531 c -0.285156 -0.84375 -0.152343 -1.644531 0 -2.4375 c 0.003907 -0.003906 0.007813 -0.011719 0.011719 -0.015625 c 0.003906 -0.011719 0.007812 -0.027344 0.011719 -0.039063 c 0.261719 -0.789062 0.757812 -1.464843 1.414062 -1.945312 c 0.007813 -0.003906 0.019531 -0.011719 0.027344 -0.015625 c 0.019531 -0.015625 0.042969 -0.03125 0.0625 -0.050781 c 0.644531 -0.449219 1.433594 -0.714844 2.289063 -0.714844 c 0.476562 0 0.929687 0.085938 1.351562 0.234375 c -0.097656 -0.402344 -0.300781 -0.785156 -0.617188 -1.101563 l -1.75 -1.75 c -0.066406 0.410157 -0.410156 0.777344 -0.804687 0.902344 c -0.023437 0.007813 -0.042969 0.015625 -0.0625 0.019532 c -0.445313 0.148437 -1.007813 0.019531 -1.28125 -0.359376 l -0.140625 -0.195312 c -0.15625 -0.210938 -0.390625 -0.355469 -0.652344 -0.398438 c -0.066406 -0.011718 -0.132812 -0.015624 -0.195312 -0.011718 z m 0 0"/>
    </g>
</svg>

<?xml version="1.0" encoding="UTF-8"?>
<svg xmlns="http://www.w3.org/2000/svg" xmlns:xlink="http://www.w3.org/1999/xlink" width="16px" height="16px" viewBox="0 0 16 16" version="1.1">
<g id="surface20559">
<path style=" stroke:none;fill-rule:nonzero;fill:rgb(18.039216%,20.392157%,21.176471%);fill-opacity:1;" d="M 13.617188 7.058594 C 14.136719 7.578125 14.136719 8.421875 13.617188 8.941406 L 8.941406 13.617188 C 8.421875 14.136719 7.578125 14.136719 7.058594 13.617188 L 2.382812 8.941406 C 1.863281 8.421875 1.863281 7.578125 2.382812 7.058594 L 7.058594 2.382812 C 7.578125 1.863281 8.421875 1.863281 8.941406 2.382812 Z M 5.648438 0.976562 L 0.976562 5.648438 C -0.324219 6.953125 -0.324219 9.046875 0.976562 10.351562 L 5.648438 15.023438 C 6.953125 16.324219 9.046875 16.324219 10.351562 15.023438 L 15.023438 10.351562 C 16.324219 9.046875 16.324219 6.953125 15.023438 5.648438 L 10.351562 0.976562 C 9.046875 -0.324219 6.953125 -0.324219 5.648438 0.976562 Z M 5.648438 0.976562 "/>
<path style=" stroke:none;fill-rule:nonzero;fill:rgb(18.039216%,20.392157%,21.176471%);fill-opacity:1;" d="M 9.433594 4.558594 C 9.234375 4.566406 9.046875 4.632812 8.886719 4.746094 C 8.4375 5.070312 8.335938 5.699219 8.664062 6.144531 L 8.804688 6.34375 C 9.078125 6.722656 9.03125 7.296875 8.753906 7.671875 C 8.742188 7.691406 8.730469 7.707031 8.71875 7.722656 C 8.445312 8.105469 7.910156 8.324219 7.46875 8.179688 L 7.238281 8.105469 C 6.714844 7.9375 6.148438 8.222656 5.980469 8.746094 C 5.808594 9.273438 6.09375 9.839844 6.621094 10.007812 L 6.84375 10.082031 C 7.289062 10.226562 7.582031 10.722656 7.59375 11.1875 C 7.59375 11.210938 7.59375 11.230469 7.59375 11.253906 C 7.609375 11.71875 7.289062 12.214844 6.84375 12.359375 L 6.621094 12.433594 C 6.09375 12.605469 5.808594 13.167969 5.980469 13.695312 C 6.148438 14.21875 6.714844 14.507812 7.238281 14.335938 L 7.46875 14.257812 C 7.914062 14.113281 8.445312 14.339844 8.71875 14.714844 C 8.730469 14.734375 8.742188 14.75 8.757812 14.765625 C 8.777344 14.796875 8.792969 14.824219 8.8125 14.855469 C 9.113281 14.742188 9.402344 14.566406 9.648438 14.320312 L 10.367188 13.601562 C 10.121094 13.269531 9.925781 12.894531 9.792969 12.492188 C 9.789062 12.480469 9.785156 12.46875 9.78125 12.457031 C 9.777344 12.449219 9.773438 12.445312 9.769531 12.4375 C 9.484375 11.59375 9.617188 10.792969 9.769531 10 C 9.773438 9.996094 9.777344 9.988281 9.78125 9.984375 C 9.785156 9.972656 9.789062 9.957031 9.792969 9.945312 C 10.054688 9.15625 10.550781 8.480469 11.207031 8 C 11.214844 7.996094 11.226562 7.988281 11.234375 7.984375 C 11.253906 7.96875 11.277344 7.953125 11.296875 7.933594 C 11.941406 7.484375 12.730469 7.21875 13.585938 7.21875 C 14.0625 7.21875 14.515625 7.304688 14.9375 7.453125 C 14.839844 7.050781 14.636719 6.667969 14.320312 6.351562 L 12.570312 4.601562 C 12.503906 5.011719 12.160156 5.378906 11.765625 5.503906 C 11.742188 5.511719 11.722656 5.519531 11.703125 5.523438 C 11.257812 5.671875 10.695312 5.542969 10.421875 5.164062 L 10.28125 4.96875 C 10.125 4.757812 9.890625 4.613281 9.628906 4.570312 C 9.5625 4.558594 9.496094 4.554688 9.433594 4.558594 Z M 9.433594 4.558594 "/>
</g>
</svg>
